dist/img/svg/xbox-icon.svg

<svg width="31" height="31" viewBox="0 0 31 31" fill="none" xmlns="http://www.w3.org/2000/svg">
<path d="M10.5514 3.15842C12.1356 3.77963 13.667 4.6001 15.1104 5.60225C15.2747 5.7136 15.4625 5.77221 15.6502 5.77221C15.838 5.77221 16.0257 5.7136 16.19 5.60225C17.6334 4.6001 19.1648 3.77377 20.7491 3.15256C21.107 3.0119 21.3476 2.66027 21.3417 2.27348C21.3417 1.88668 21.1011 1.54091 20.7373 1.40612C17.5689 0.204714 13.7315 0.204714 10.569 1.40612C10.211 1.54091 9.9646 1.89254 9.9646 2.27348C9.9646 2.65441 10.1876 3.01776 10.5514 3.15842Z" fill="#FFB548"/>
<path d="M24.1587 3.16374C23.8594 2.95862 23.478 2.94104 23.1553 3.12271C21.4009 4.13072 19.7052 5.28524 18.1034 6.55698C17.8922 6.72693 17.7631 6.97893 17.7513 7.24852C17.7396 7.5181 17.8452 7.78183 18.0388 7.96936C21.3599 11.1282 25.96 20.8156 27.0162 25.2696C24.7278 21.4017 19.6231 12.3003 16.2845 9.18835C15.9265 8.8543 15.3633 8.8543 15.0053 9.18835C11.6608 12.3003 6.5737 21.4075 4.28536 25.2813C5.34152 20.8273 9.92992 11.1282 13.2509 7.96936C13.4504 7.78183 13.5561 7.5181 13.5443 7.24852C13.5326 6.97893 13.4035 6.72693 13.1923 6.55698C11.5904 5.28524 9.88885 4.13072 8.14033 3.12271C7.82935 2.94104 7.43622 2.95862 7.13698 3.16374C3.05905 5.97093 0.624023 10.5832 0.624023 15.506C0.624023 19.1043 1.92075 22.5738 4.28536 25.2813C7.11351 28.5984 11.2501 30.5089 15.6449 30.5089C20.0397 30.5089 24.1822 28.6042 27.0162 25.2755C29.369 22.5796 30.6658 19.1102 30.6658 15.506C30.6658 10.5832 28.2307 5.97093 24.1587 3.16374Z" fill="#FFB548"/>
</svg>

<svg width="31" height="31" fill="none" xmlns="http://www.w3.org/2000/svg"><path d="M10.551 3.158a22.246 22.246 0 014.56 2.444c.164.112.351.17.54.17a.964.964 0 00.539-.17 22.27 22.27 0 014.56-2.45.935.935 0 00.592-.879.925.925 0 00-.605-.867C17.57.205 13.732.205 10.57 1.406a.944.944 0 00-.018 1.752z" fill="#FFB548"/><path d="M24.159 3.164a.94.94 0 00-1.004-.041 40.987 40.987 0 00-5.052 3.434.942.942 0 00-.064 1.412c3.32 3.16 7.921 12.847 8.977 17.3-2.288-3.867-7.393-12.969-10.731-16.08a.942.942 0 00-1.28 0C11.661 12.3 6.574 21.406 4.285 25.28c1.057-4.453 5.645-14.152 8.966-17.31a.933.933 0 00-.059-1.412A41.445 41.445 0 008.14 3.123a.941.941 0 00-1.003.04A14.992 14.992 0 00.624 15.507a14.85 14.85 0 003.661 9.775 14.897 14.897 0 0011.36 5.228c4.395 0 8.537-1.905 11.371-5.233a14.849 14.849 0 003.65-9.77 15 15 0 00-6.507-12.342z" fill="#FFB548"/></svg>
